FINK
CUT[AUCH FUER DEN WINTER DANKEN WIR]
REG[Europa, Mitteleuropa, Deutschland]
KEY[F0972  08  F 3/4]
MEL[  -1_-1_-1_  -2__-2_  -5__-4_  -3__.
    -5_1_3_  2__-7_  2_1_-6_  -5__0_
    2_1_-7_  1__-5_  -5__-4_  -3__.
    1_-5_-3_  -6_.-4-22  1__.  -7__.  1__0_ //] >>
FCT[Natur -, Jahreszeiten - Lied, Winter]
